X:1
T:Angry Words
T:Horatio Richmond Palmer, 1867
T:Angry Words
T:Public Domain
T:Public Domain
C:Horatio Richmond Palmer, 1867
Z:Public Domain
%%score ( 1 2 ) ( 3 4 )
L:1/8
M:3/4
K:Eb
V:1 treble 
V:2 treble 
V:3 bass 
V:4 bass 
V:1
 [GB]>[^F=A] | [GB]3 [EG] [Ac]>[GB] | [GB]2 [FA]2 [FA]>[=EG] | [FA]3 [DF] [GB]>[FA] | %4
w: 1.~Ang- ry|words! O let them|nev- er, From the|tongue un- brid- led|
w: 2.~Love is|much too pure and|ho- ly, Friend- ship|is too sac- red|
w: 3.~Ang- ry|words are light- ly|spok- en, Bit- terest|thoughts are rash- ly|
 [EG]4 [GB]>[^F=A] | [GB]3 [DG] [GB][Ge] | [Bd]2 [Ac]2 (3([Ac][Bd])[ce] | %7
w: slip, May the|heart’s best im- pulse|ev- er, Check * them|
w: far, For a|mo- ment’s reck- less|fol- ly, Thus * to|
w: stirred, Bright- est|links of life are|brok- en, By * a|
 [GB]>[^F=A] [GB]2 [=F_A]2 | [EG]4 |:"^Refrain" (3[EG][FA][GB] | ([Ac]>[G=B]) [Ac]2 | %11
w: ere they soil the|lip.|||
w: de- so- late and|mar.|Love one a-|no- * ther|
w: sin- gle ang- ry|word.|||
 (3[Ac][Bd][ce] | ([GB]>[^F=A]) [GB]2 (3[EG][=F_A][GB] | [FA]>[=EG] [FA]>[Ac] [GB]>[FA] | [EG]4 :| %15
w: ||||
w: thus saith the|Sav- * ior, Child- ren o-|bey the Fa- ther’s blest com-|mand,|
w: ||||
 [FA]2 [DF]2 | E4 |] %17
w: ||
w: blest com-|mand.|
w: ||
V:2
 x2 | x6 | x6 | x6 | x6 | x6 | x6 | x6 | x4 |: x2 | x4 | x2 | x6 | x6 | x4 :| x4 | E4 |] %17
V:3
 z2 | z2 E,2 E,2 | z2 B,2 B,2 | z2 B,2 B,2 | z2 E,2 E,2 | z2 E,2 E,2 | z2 A,2 A,2 | z2 B,2 B,2 | %8
 z2 E,2 |: z2 | ([A,E]>[A,E]) [A,E]2 | [A,E]2 | ([E,E]>[E,E]) [E,E]2 [E,B,]2 | %13
 [B,,B,]>[B,,B,] [B,,B,]>[B,,B,] [B,,B,]>[B,,B,] | [E,B,]4 :| [B,,B,]2 [B,,A,]2 | [E,G,]4 |] %17
V:4
 x2 | E,,4 x2 | B,,4 x2 | B,,4 x2 | E,,4 x2 | E,,4 x2 | A,,4 x2 | B,,4 x2 | E,,4 |: x2 | x4 | x2 | %12
 x6 | x6 | x4 :| x4 | x4 |] %17

